projects/flag-game/flags/Trinidad and Tobago.svg

<svg viewBox="0 0 1000 600" xmlns="http://www.w3.org/2000/svg"><path d="m0 0h1000v600h-1000z" fill="#ce1126"/><g fill-rule="evenodd"><path d="m0 0 694.160156 600h305.839844l-694.160156-600zm0 0" fill="#fff"/><path d="m50.976562 0 694.152344 600h203.894532l-694.152344-600zm0 0"/></g></svg>

<?xml version="1.0" encoding="UTF-8"?>
<svg xmlns="http://www.w3.org/2000/svg" xmlns:xlink="http://www.w3.org/1999/xlink" viewBox="0 0 1000 600" version="1.1">
<g id="surface1195">
<rect x="0" y="0" width="1000" height="600" style="fill:rgb(80.783081%,6.666565%,14.901733%);fill-opacity:1;stroke:none;"/>
<path style=" stroke:none;fill-rule:evenodd;fill:rgb(99.998474%,99.998474%,99.998474%);fill-opacity:1;" d="M 0 0 L 694.160156 600 L 1000 600 L 305.839844 0 Z M 0 0 "/>
<path style=" stroke:none;fill-rule:evenodd;fill:rgb(0%,0%,0%);fill-opacity:1;" d="M 50.976562 0 L 745.128906 600 L 949.023438 600 L 254.871094 0 Z M 50.976562 0 "/>
</g>
</svg>
